d2 $ qtrigger $ n (scale "minor" "0*2 [-5 -3] [~ ~] [-7*2]"|+"g") 
    #sound "sax" #octave 5 # room 1 # sz 0.7 # gain 1 # legato 1

hush
d1 $ n (scale "minor" "[0 1] [4 5] [4 3]  [7]"|+"a") #sound "arpy" # octave 2 # room 2 # sz 0.5 # gain 0.75

d2  $jux rev $ n (scale "minor" "[0 1] [4 5] [4 3]  [7]"|+"a") #sound "arpy" # octave 3 # room 2 # sz 0.5 # gain 0.75