do
 resetCycles
 let mylist = [1,2,6,3,50,14,31,34,2,6]
 let l = pure (length mylist)
 let pat = segment 4 $ (mylist !!) <$> (mod (sig floor) (l))
 d6 $ fast 8 $ s "jungbass" # n pat 

 d5 $ n " 0 1 3 [4*2]" # sound "808"# room 2 # sz 0.7


hush
let chordProgression = "<[^I*2] [^VI*4 ^IV] [^IV*4 ^VI] [[~ ~] ^I]>"